dist/icons/promo/call.svg

<?xml version="1.0" encoding="iso-8859-1"?>
<!-- Generator: Adobe Illustrator 19.0.0, SVG Export Plug-In . SVG Version: 6.00 Build 0)  -->
<svg version="1.1" id="Layer_1" xmlns="http://www.w3.org/2000/svg" xmlns:xlink="http://www.w3.org/1999/xlink" x="0px" y="0px"
	 viewBox="0 0 322 322" style="enable-background:new 0 0 322 322;" xml:space="preserve">
<g id="XMLID_7_">
	<path id="XMLID_8_" d="M275.445,135.123c0.387-45.398-38.279-87.016-86.192-92.771c-0.953-0.113-1.991-0.285-3.09-0.467
		c-2.372-0.393-4.825-0.797-7.3-0.797c-9.82,0-12.445,6.898-13.136,11.012c-0.672,4-0.031,7.359,1.902,9.988
		c3.252,4.422,8.974,5.207,13.57,5.836c1.347,0.186,2.618,0.359,3.682,0.598c43.048,9.619,57.543,24.742,64.627,67.424
		c0.173,1.043,0.251,2.328,0.334,3.691c0.309,5.102,0.953,15.717,12.365,15.717h0.001c0.95,0,1.971-0.082,3.034-0.244
		c10.627-1.615,10.294-11.318,10.134-15.98c-0.045-1.313-0.088-2.555,0.023-3.381C275.429,135.541,275.444,135.332,275.445,135.123z
		"/>
	<path id="XMLID_9_" d="M176.077,25.688c1.275,0.092,2.482,0.18,3.487,0.334c70.689,10.871,103.198,44.363,112.207,115.605
		c0.153,1.211,0.177,2.688,0.202,4.252c0.09,5.566,0.275,17.145,12.71,17.385l0.386,0.004c3.9,0,7.002-1.176,9.221-3.498
		c3.871-4.049,3.601-10.064,3.383-14.898c-0.053-1.186-0.104-2.303-0.091-3.281C318.481,68.729,255.411,2.658,182.614,0.201
		c-0.302-0.01-0.59,0.006-0.881,0.047c-0.143,0.021-0.408,0.047-0.862,0.047c-0.726,0-1.619-0.063-2.566-0.127
		C177.16,0.09,175.862,0,174.546,0c-11.593,0-13.797,8.24-14.079,13.152C159.817,24.504,170.799,25.303,176.077,25.688z"/>
	<path id="XMLID_10_" d="M288.36,233.703c-1.503-1.148-3.057-2.336-4.512-3.508c-7.718-6.211-15.929-11.936-23.87-17.473
		c-1.648-1.148-3.296-2.297-4.938-3.449c-10.172-7.145-19.317-10.617-27.957-10.617c-11.637,0-21.783,6.43-30.157,19.109
		c-3.71,5.621-8.211,8.354-13.758,8.354c-3.28,0-7.007-0.936-11.076-2.783c-32.833-14.889-56.278-37.717-69.685-67.85
		c-6.481-14.564-4.38-24.084,7.026-31.832c6.477-4.396,18.533-12.58,17.679-28.252c-0.967-17.797-40.235-71.346-56.78-77.428
		c-7.005-2.576-14.365-2.6-21.915-0.06c-19.02,6.394-32.669,17.623-39.475,32.471C2.365,64.732,2.662,81.578,9.801,99.102
		c20.638,50.666,49.654,94.84,86.245,131.293c35.816,35.684,79.837,64.914,130.839,86.875c4.597,1.978,9.419,3.057,12.94,3.844
		c1.2,0.27,2.236,0.5,2.991,0.707c0.415,0.113,0.843,0.174,1.272,0.178l0.403,0.002c0.001,0,0,0,0.002,0
		c23.988,0,52.791-21.92,61.637-46.91C313.88,253.209,299.73,242.393,288.36,233.703z"/>
	<path id="XMLID_11_" d="M186.687,83.564c-4.107,0.104-12.654,0.316-15.653,9.021c-1.403,4.068-1.235,7.6,0.5,10.498
		c2.546,4.252,7.424,5.555,11.861,6.27c16.091,2.582,24.355,11.48,26.008,28c0.768,7.703,5.955,13.082,12.615,13.082h0.001
		c0.492,0,0.995-0.029,1.496-0.09c8.01-0.953,11.893-6.838,11.542-17.49c0.128-11.117-5.69-23.738-15.585-33.791
		C209.543,88.98,197.574,83.301,186.687,83.564z"/>
</g>
<g>
</g>
<g>
</g>
<g>
</g>
<g>
</g>
<g>
</g>
<g>
</g>
<g>
</g>
<g>
</g>
<g>
</g>
<g>
</g>
<g>
</g>
<g>
</g>
<g>
</g>
<g>
</g>
<g>
</g>
</svg>

<svg width="322" height="322" viewBox="0 0 322 322" fill="none" xmlns="http://www.w3.org/2000/svg">
<g clip-path="url(#clip0)">
<path d="M275.445 135.123C275.832 89.7249 237.166 48.1069 189.253 42.3519C188.3 42.2389 187.262 42.0669 186.163 41.8849C183.791 41.4919 181.338 41.0879 178.863 41.0879C169.043 41.0879 166.418 47.9859 165.727 52.0999C165.055 56.0999 165.696 59.4589 167.629 62.0879C170.881 66.5099 176.603 67.2949 181.199 67.9239C182.546 68.1099 183.817 68.2829 184.881 68.5219C227.929 78.1409 242.424 93.2639 249.508 135.946C249.681 136.989 249.759 138.274 249.842 139.637C250.151 144.739 250.795 155.354 262.207 155.354H262.208C263.158 155.354 264.179 155.272 265.242 155.11C275.869 153.495 275.536 143.792 275.376 139.13C275.331 137.817 275.288 136.575 275.399 135.749C275.429 135.541 275.444 135.332 275.445 135.123Z" fill="white"/>
<path d="M176.077 25.688C177.352 25.78 178.559 25.868 179.564 26.022C250.253 36.893 282.762 70.385 291.771 141.627C291.924 142.838 291.948 144.315 291.973 145.879C292.063 151.445 292.248 163.024 304.683 163.264L305.069 163.268C308.969 163.268 312.071 162.092 314.29 159.77C318.161 155.721 317.891 149.706 317.673 144.872C317.62 143.686 317.569 142.569 317.582 141.591C318.481 68.729 255.411 2.658 182.614 0.201C182.312 0.191 182.024 0.207 181.733 0.248C181.59 0.269 181.325 0.295 180.871 0.295C180.145 0.295 179.252 0.232 178.305 0.168C177.16 0.09 175.862 0 174.546 0C162.953 0 160.749 8.24 160.467 13.152C159.817 24.504 170.799 25.303 176.077 25.688Z" fill="white"/>
<path d="M288.36 233.703C286.857 232.555 285.303 231.367 283.848 230.195C276.13 223.984 267.919 218.259 259.978 212.722C258.33 211.574 256.682 210.425 255.04 209.273C244.868 202.128 235.723 198.656 227.083 198.656C215.446 198.656 205.3 205.086 196.926 217.765C193.216 223.386 188.715 226.119 183.168 226.119C179.888 226.119 176.161 225.183 172.092 223.336C139.259 208.447 115.814 185.619 102.407 155.486C95.926 140.922 98.027 131.402 109.433 123.654C115.91 119.258 127.966 111.074 127.112 95.402C126.145 77.605 86.877 24.056 70.332 17.974C63.327 15.398 55.967 15.374 48.417 17.914C29.397 24.308 15.748 35.537 8.94201 50.385C2.36501 64.732 2.66201 81.578 9.80101 99.102C30.439 149.768 59.455 193.942 96.046 230.395C131.862 266.079 175.883 295.309 226.885 317.27C231.482 319.248 236.304 320.327 239.825 321.114C241.025 321.384 242.061 321.614 242.816 321.821C243.231 321.934 243.659 321.995 244.088 321.999L244.491 322.001C244.492 322.001 244.491 322.001 244.493 322.001C268.481 322.001 297.284 300.081 306.13 275.091C313.88 253.209 299.73 242.393 288.36 233.703Z" fill="white"/>
<path d="M186.687 83.5639C182.58 83.6679 174.033 83.8799 171.034 92.5849C169.631 96.6529 169.799 100.185 171.534 103.083C174.08 107.335 178.958 108.638 183.395 109.353C199.486 111.935 207.75 120.833 209.403 137.353C210.171 145.056 215.358 150.435 222.018 150.435H222.019C222.511 150.435 223.014 150.406 223.515 150.345C231.525 149.392 235.408 143.507 235.057 132.855C235.185 121.738 229.367 109.117 219.472 99.0639C209.543 88.9799 197.574 83.3009 186.687 83.5639Z" fill="white"/>
</g>
<defs>
<clipPath id="clip0">
<rect width="322" height="322" fill="white"/>
</clipPath>
</defs>
</svg>
